_includes/icons/ios-mpg.svg

<svg fill="#666" height="50" viewBox="0 0 50 50" width="50" xmlns="http://www.w3.org/2000/svg"><path d="m7 2v46h36v-32.589844l-13.816406-13.410156zm2 2h19v13h13v29h-32zm21 1.578125 9.707031 9.421875h-9.707031zm3.839844 17.703125c-2.03125 0-4.019531 1.40625-4.0625 4.785156-.03125 1.601563.410156 2.980469 1.234375 3.753907.640625.621093 1.460937.925781 2.554687.925781.699219 0 1.578125-.167969 1.992188-.332031v-4.964844h-2.574219v1.472656h.855469v2.25c-.074219.027344-.199219.042969-.371094.042969-.867187 0-1.761719-.800781-1.761719-3.035156 0-2.429688 1.007813-3.269532 2.273438-3.269532.46875 0 .820312.070313 1.09375.207032l.328125-1.558594c-.300781-.136719-.839844-.277344-1.5625-.277344zm-8.144531.042969c-.710938 0-1.421875.070312-1.945313.179687v9.15625h1.859375v-3.460937h.371094c.765625 0 1.730469-.277344 2.328125-.882813.496094-.523437.8125-1.226562.8125-2.234375 0-.785156-.257813-1.558593-.824219-2.039062-.625-.566406-1.492187-.71875-2.601562-.71875zm-10.65625.039062-.695313 9.296875h1.605469l.15625-3.226562c.054687-.925781.113281-2.097656.140625-3.105469h.042969c.140625 1.011719.394531 2.167969.582031 2.910156l.796875 3.273438h1.320312l.824219-3.324219c.183594-.71875.4375-1.863281.609375-2.859375h.042969c-.027344.996094.042969 2.195313.085937 3.078125l.171875 3.253906h1.664063l-.585938-9.296875h-1.957031l-.753906 3.367188c-.257813 1.171875-.472656 2.222656-.613281 3.253906h-.027344c-.171875-1.046875-.410156-2.082031-.683594-3.253906l-.765625-3.367188zm11.023437 1.421875c.867188 0 1.207031.636719 1.207031 1.449219 0 .867188-.421875 1.515625-1.363281 1.515625-.109375 0-.210937.003906-.296875-.027344v-2.867187c.113281-.039063.285156-.070313.453125-.070313z"/></svg>

<svg xmlns="http://www.w3.org/2000/svg" viewBox="0 0 50 50" width="50" height="50" fill="#666"><path d="M 7 2 L 7 48 L 43 48 L 43 15.410156 L 29.183594 2 Z M 9 4 L 28 4 L 28 17 L 41 17 L 41 46 L 9 46 Z M 30 5.578125 L 39.707031 15 L 30 15 Z M 33.839844 23.28125 C 31.808594 23.28125 29.820313 24.6875 29.777344 28.066406 C 29.746094 29.667969 30.1875 31.046875 31.011719 31.820313 C 31.652344 32.441406 32.472656 32.746094 33.566406 32.746094 C 34.265625 32.746094 35.144531 32.578125 35.558594 32.414063 L 35.558594 27.449219 L 32.984375 27.449219 L 32.984375 28.921875 L 33.839844 28.921875 L 33.839844 31.171875 C 33.765625 31.199219 33.640625 31.214844 33.46875 31.214844 C 32.601563 31.214844 31.707031 30.414063 31.707031 28.179688 C 31.707031 25.75 32.714844 24.910156 33.980469 24.910156 C 34.449219 24.910156 34.800781 24.980469 35.074219 25.117188 L 35.402344 23.558594 C 35.101563 23.421875 34.5625 23.28125 33.839844 23.28125 Z M 25.695313 23.324219 C 24.984375 23.324219 24.273438 23.394531 23.75 23.503906 L 23.75 32.660156 L 25.609375 32.660156 L 25.609375 29.199219 L 25.980469 29.199219 C 26.746094 29.199219 27.710938 28.921875 28.308594 28.316406 C 28.804688 27.792969 29.121094 27.089844 29.121094 26.082031 C 29.121094 25.296875 28.863281 24.523438 28.296875 24.042969 C 27.671875 23.476563 26.804688 23.324219 25.695313 23.324219 Z M 15.039063 23.363281 L 14.34375 32.660156 L 15.949219 32.660156 L 16.105469 29.433594 C 16.160156 28.507813 16.21875 27.335938 16.246094 26.328125 L 16.289063 26.328125 C 16.429688 27.339844 16.683594 28.496094 16.871094 29.238281 L 17.667969 32.511719 L 18.988281 32.511719 L 19.8125 29.1875 C 19.996094 28.46875 20.25 27.324219 20.421875 26.328125 L 20.464844 26.328125 C 20.4375 27.324219 20.507813 28.523438 20.550781 29.40625 L 20.722656 32.660156 L 22.386719 32.660156 L 21.800781 23.363281 L 19.84375 23.363281 L 19.089844 26.730469 C 18.832031 27.902344 18.617188 28.953125 18.476563 29.984375 L 18.449219 29.984375 C 18.277344 28.9375 18.039063 27.902344 17.765625 26.730469 L 17 23.363281 Z M 26.0625 24.785156 C 26.929688 24.785156 27.269531 25.421875 27.269531 26.234375 C 27.269531 27.101563 26.847656 27.75 25.90625 27.75 C 25.796875 27.75 25.695313 27.753906 25.609375 27.722656 L 25.609375 24.855469 C 25.722656 24.816406 25.894531 24.785156 26.0625 24.785156 Z"/></svg>
